X: 30333
T: Old Monaghan Twig, The
R: reel
M: 4/4
K: Amixolydian
e2 d2|:cAB/c/d cAGE|Adcd e2 ed|cAB/c/d cAag|efge dage|
cAB/c/d cAGE|Adcd e2 ed|cAB/c/d cAag|efge d2||
cd|eaag edcd|edef g2 gf|eaag eaag|eage d2 cd|eaag edcd|
edef g2 f2|eaag eaag|1 eage df ed:|2 eage d2||

